assetsMobile/icons/facebook.svg

<?xml version="1.0" encoding="UTF-8"?>
<svg xmlns="http://www.w3.org/2000/svg" xmlns:xlink="http://www.w3.org/1999/xlink" width="90px" height="90px" viewBox="0 0 90 90" version="1.1">
<g id="surface1">
<path style=" stroke:none;fill-rule:nonzero;fill:rgb(98.039216%,97.254902%,96.862745%);fill-opacity:1;" d="M 90 45 C 90 20.101562 69.898438 0 45 0 C 20.101562 0 0 20.101562 0 45 C 0 69.898438 20.101562 90 45 90 C 45.300781 90 45.5 90 45.800781 90 L 45.800781 55 L 36.101562 55 L 36.101562 43.699219 L 45.800781 43.699219 L 45.800781 35.398438 C 45.800781 25.800781 51.699219 20.5 60.199219 20.5 C 64.300781 20.5 67.800781 20.800781 68.898438 20.898438 L 68.898438 31 L 63 31 C 58.300781 31 57.398438 33.199219 57.398438 36.5 L 57.398438 43.699219 L 68.601562 43.699219 L 67.101562 55 L 57.398438 55 L 57.398438 88.300781 C 76.199219 82.898438 90 65.5 90 45 Z M 90 45 "/>
</g>
</svg>

<?xml version="1.0" encoding="utf-8"?>
<!-- Generator: Adobe Illustrator 24.0.2, SVG Export Plug-In . SVG Version: 6.00 Build 0)  -->
<svg version="1.1" id="Capa_1" xmlns="http://www.w3.org/2000/svg" xmlns:xlink="http://www.w3.org/1999/xlink" x="0px" y="0px"
	 viewBox="0 0 90 90" style="enable-background:new 0 0 90 90;" xml:space="preserve">
<style type="text/css">
	.st0{fill:#FAF8F7;}
</style>
<path class="st0" d="M90,45C90,20.1,69.9,0,45,0S0,20.1,0,45s20.1,45,45,45c0.3,0,0.5,0,0.8,0V55h-9.7V43.7h9.7v-8.3
	c0-9.6,5.9-14.9,14.4-14.9c4.1,0,7.6,0.3,8.7,0.4V31H63c-4.7,0-5.6,2.2-5.6,5.5v7.2h11.2l-1.5,11.3h-9.7v33.3
	C76.2,82.9,90,65.5,90,45z"/>
</svg>
